X:1
T:Title
%%score { 1 | ( 2 3 ) }
L:1/8
Q:1/4=78
M:6/8
K:G
V:1 treble nm="Grand Piano"
V:2 bass 
V:3 bass 
V:1
 [B,D][B,D][B,D] [B,D]2 [B,D]/D/ | E2 E [B,D]2 D | GGG GGG | [FA]2 [GB] [FA]2 [Ad] | d<dd edB | %5
w: D.~E.~Dortch * * * * *|||||
 [EA][EG][CE] [B,D]2 G/>G/ | G2 G/>G/ [GB][GB][CFA] |[M:5/8] [B,G]-[B,G]- [B,G]3 |[M:1/8] d/>d/ | %9
w: ||||
[M:3/4] d2 d/>d/d ed | B4- B[FA]/>[FA]/ | [FA]2 [FA]/>[FA]/[FA] [GB][FA] | G4- Gd | d<d de dB | %14
w: |||||
 [EA][EG] [CE] [CE]2 G/>G/ | G2 G/>G/[GB] [GB][FA] | [B,G]6 |] %17
w: |||
V:2
 [G,,G,][G,,G,][G,,G,] [G,,G,]2 z/ B,/ | [C,G,C]2 [C,G,C] [G,,G,]2 [G,B,] | %2
 [G,B,D][G,B,D][G,B,D] [G,B,D][G,B,D][G,B,D] | [D,D]2 [D,D] [D,D]2 [D,C] | %4
 [G,B,G]<[G,B,G][G,B,G] [G,CG][G,B,G][K:bass][G,D] | [C,C][C,C][C,G,] [G,,G,]2 [G,B,D]/>[G,B,D]/ | %6
 [G,B,D]2 [G,B,D]/>[G,B,D]/ [D,D][D,D]D, |[M:5/8] G,,-G,,- G,,3 | %8
[M:1/8][K:treble] [G,B,G]/>[G,B,G]/ |[M:3/4] [G,B,G]2 [G,B,G]/>[G,B,G]/[G,B,G] [G,CG][G,B,G] | %10
 [G,DG]4- [G,DG][K:bass][D,D]/>[D,D]/ | [D,D]2 [D,D]/>[D,D]/[D,D] [D,D][D,C] | %12
 [G,B,]4- [G,B,][K:treble][G,B,G] | [G,B,G]<[G,B,G] [G,B,G][G,CG] [G,B,G][K:bass][G,D] | %14
 [C,C][C,C] [C,G,] [G,,G,]2 [G,B,D]/>[G,B,D]/ | [G,B,D]2 [G,B,D]/>[F,B,D]/[D,D] [D,D][D,C] | %16
 [G,,G,]6 |] %17
V:3
 z3 z2 [G,,G,] | x6 | x6 | x6 | x5[K:bass] x | x6 | x6 |[M:5/8] x5 |[M:1/8][K:treble] x | %9
[M:3/4] x6 | x5[K:bass] x | x6 | x5[K:treble] x | x5[K:bass] x | x6 | x6 | x6 |] %17

